cssgg/film.svg

<svg
  width="24"
  height="24"
  viewBox="0 0 24 24"
  fill="none"
  xmlns="http://www.w3.org/2000/svg"
>
  <path
    d="M6 7C5.44772 7 5 7.44772 5 8C5 8.55228 5.44772 9 6 9C6.55228 9 7 8.55228 7 8C7 7.44772 6.55228 7 6 7Z"
    fill="currentColor"
  />
  <path
    d="M17 8C17 7.44772 17.4477 7 18 7C18.5523 7 19 7.44772 19 8C19 8.55228 18.5523 9 18 9C17.4477 9 17 8.55228 17 8Z"
    fill="currentColor"
  />
  <path
    d="M6 11C5.44772 11 5 11.4477 5 12C5 12.5523 5.44772 13 6 13C6.55228 13 7 12.5523 7 12C7 11.4477 6.55228 11 6 11Z"
    fill="currentColor"
  />
  <path
    d="M17 12C17 11.4477 17.4477 11 18 11C18.5523 11 19 11.4477 19 12C19 12.5523 18.5523 13 18 13C17.4477 13 17 12.5523 17 12Z"
    fill="currentColor"
  />
  <path
    d="M6 15C5.44772 15 5 15.4477 5 16C5 16.5523 5.44772 17 6 17C6.55228 17 7 16.5523 7 16C7 15.4477 6.55228 15 6 15Z"
    fill="currentColor"
  />
  <path
    d="M17 16C17 15.4477 17.4477 15 18 15C18.5523 15 19 15.4477 19 16C19 16.5523 18.5523 17 18 17C17.4477 17 17 16.5523 17 16Z"
    fill="currentColor"
  />
  <path
    fill-rule="evenodd"
    clip-rule="evenodd"
    d="M4 3C2.34315 3 1 4.34315 1 6V18C1 19.6569 2.34315 21 4 21H20C21.6569 21 23 19.6569 23 18V6C23 4.34315 21.6569 3 20 3H4ZM20 5H4C3.44772 5 3 5.44772 3 6V18C3 18.5523 3.44772 19 4 19H20C20.5523 19 21 18.5523 21 18V6C21 5.44772 20.5523 5 20 5Z"
    fill="currentColor"
  />
</svg>

<svg viewBox="0 0 24 24" xmlns="http://www.w3.org/2000/svg"><g><path d="M6 7c-.56 0-1 .44-1 1 0 .55.44 1 1 1 .55 0 1-.45 1-1 0-.56-.45-1-1-1Z"/><path d="M17 8c0-.56.44-1 1-1 .55 0 1 .44 1 1 0 .55-.45 1-1 1 -.56 0-1-.45-1-1Z"/><path d="M6 11c-.56 0-1 .44-1 1 0 .55.44 1 1 1 .55 0 1-.45 1-1 0-.56-.45-1-1-1Z"/><path d="M17 12c0-.56.44-1 1-1 .55 0 1 .44 1 1 0 .55-.45 1-1 1 -.56 0-1-.45-1-1Z"/><path d="M6 15c-.56 0-1 .44-1 1 0 .55.44 1 1 1 .55 0 1-.45 1-1 0-.56-.45-1-1-1Z"/><path d="M17 16c0-.56.44-1 1-1 .55 0 1 .44 1 1 0 .55-.45 1-1 1 -.56 0-1-.45-1-1Z"/><path fill-rule="evenodd" d="M4 3C2.34 3 1 4.34 1 6v12c0 1.65 1.34 3 3 3h16c1.65 0 3-1.35 3-3V6c0-1.66-1.35-3-3-3H4Zm16 2H4c-.56 0-1 .44-1 1v12c0 .55.44 1 1 1h16c.55 0 1-.45 1-1V6c0-.56-.45-1-1-1Z"/></g></svg>
